lib/healthicons/icons/solid/symbols/medium_level.svg

<svg fill="none" height="48" viewBox="0 0 48 48" width="48" xmlns="http://www.w3.org/2000/svg"><g fill="#333"><path d="m35.4653 12.1208c-2.8738-2.37575-6.4985-3.87644-10.4653-4.09351v4.97271h-2v-4.97271c-3.9668.21708-7.5914 1.71774-10.4652 4.09341l3.0008 3.0006-1.4142 1.4143-3.0564-3.0563c-2.70187 2.7898-4.50823 6.451-4.95619 10.5207h3.94389v2h-4.0527c.00246 4.2022 1.44565 8.0662 3.86416 11.1274l2.91834-2.9184 1.4142 1.4142-3.0052 3.0053.0188.019-1.42061 1.4078c-3.57808-3.6107-5.78969-8.5812-5.78969-14.0661 0-11.0402 8.9548-19.9892 20-19.9892s20 8.949 20 19.9892c0 5.6344-2.3337 10.7256-6.0848 14.3579l-1.3913-1.4368.0126-.0123-3.4771-3.4771 1.4142-1.4142 3.4204 3.4203c2.5638-3.1069 4.1035-7.0867 4.106-11.427h-4.3157v-2h4.2069c-.448-4.0697-2.2543-7.7308-4.9561-10.5206l-2.9352 2.9348-1.4141-1.4143z"/><path d="m20.6265 37.7042c-.0283.3922.0875.7812.3257 1.0941l1.9224 2.2113c1.1255.4905 1.6255.4905 2.5681 0l1.9224-2.2113c.2382-.3129.354-.7019.3257-1.0941l-2.3812-13.8021c-.1442-1.9969-2.1692-2.015-2.3135-.0182z"/></g></svg>

<svg width="48" height="48" viewBox="0 0 48 48" fill="none" xmlns="http://www.w3.org/2000/svg">
<path d="M35.4653 12.1208C32.5915 9.74505 28.9668 8.24436 25 8.02729L25 13L23 13L23 8.02729C19.0332 8.24437 15.4086 9.74503 12.5348 12.1207L15.5356 15.1213L14.1214 16.5356L11.065 13.4793C8.36313 16.2691 6.55677 19.9303 6.10881 24H10.0527V26H6C6.00246 30.2022 7.44565 34.0662 9.86416 37.1274L12.7825 34.209L14.1967 35.6232L11.1915 38.6285L11.2103 38.6475L9.78969 40.0553C6.21161 36.4446 4 31.4741 4 25.9892C4 14.949 12.9548 6 24 6C35.0452 6 44 14.949 44 25.9892C44 31.6236 41.6663 36.7148 37.9152 40.3471L36.5239 38.9103L36.5365 38.898L33.0594 35.4209L34.4736 34.0067L37.894 37.427C40.4578 34.3201 41.9975 30.3403 42 26H37.6843V24H41.8912C41.4432 19.9303 39.6369 16.2692 36.9351 13.4794L33.9999 16.4142L32.5858 14.9999L35.4653 12.1208Z" fill="#333333"/>
<path d="M20.6265 37.7042C20.5982 38.0964 20.714 38.4854 20.9522 38.7983L22.8746 41.0096C24.0001 41.5001 24.5001 41.5001 25.4427 41.0096L27.3651 38.7983C27.6033 38.4854 27.7191 38.0964 27.6908 37.7042L25.3096 23.9021C25.1654 21.9052 23.1404 21.8871 22.9961 23.8839L20.6265 37.7042Z" fill="#333333"/>
</svg>
